!!!COM: Arthur Honegger
!!!OTL: [T607_Hon-w35p32-33h5m1-15]
**kern	**dynam	**kern	**dynam	**kern	**dynam	**kern	**dynam	**kern	**dynam
*grp:A	*grp:A	*grp:A	*grp:A	*grp:A	*grp:A	*grp:B	*grp:B	*grp:B	*grp:B
*part5	*part5	*part4	*part4	*part3	*part3	*part2	*part2	*part1	*part1
*staff5	*	*staff4	*	*staff3	*	*staff2	*	*staff1	*
*I"Contrabass	*	*I"Violoncello	*	*I"Viola	*	*I"Violin II	*	*I"Violin I	*
*I'Cb.	*	*I'Vc.	*	*I'Vla.	*	*I'Vln. II	*	*I'Vln. I	*
*clefF4	*	*clefF4	*	*clefC3	*	*clefG2	*	*clefG2	*
*ITrd7c12	*	*	*	*	*	*	*	*	*
*k[]	*	*k[]	*	*k[]	*	*k[]	*	*k[]	*
*C:	*	*C:	*	*C:	*	*C:	*	*C:	*
*M6/8	*	*M6/8	*	*M6/8	*	*M6/8	*	*M6/8	*
!!LO:REH:t=5
=65	=65	=65	=65	=65	=65	=65	=65	=65	=65
*	*	*	*	*	*	*tremolo	*	*	*
!	!	!	!	!	!	!	!	!LO:TX:t=[[quarter-dot]=100]	!
!	!LO:DY:ed=brack	!	!LO:DY:ed=brack	!	!LO:DY:ed=brack	!	!LO:DY:ed=brack	!	!LO:DY:ed=brack
8AA#XL	f	8BB-X^L 8G	f	8c#X^L 8en	f	16GLL	f	8f^L	f
.	.	.	.	.	.	16G	.	.	.
!	!	!LO:TX:a:t=Tutti	!	!	!	!	!	!	!
8C#XJ	.	\8C#X^J	.	8c#^J 8e	.	16G#X	.	8f^J	.
.	.	.	.	.	.	16G#X	.	.	.
8r	.	8r	.	8r	.	16A	.	8r	.
.	.	.	.	.	.	16AJJ	.	.	.
!LO:TX:a:t=pizz.	!	!	!	!LO:TX:a:t=Div. en 3	!	!	!	!	!
4r	>	4r	>	4r	>	16c#XLL	>	4r	.
.	.	.	.	.	.	16c#X	.	.	.
.	.	.	.	.	.	16e	.	.	.
.	.	.	.	.	.	16e	.	.	.
!LO:TX:t=P:problem:Cross-Measure Beaming still needs to be applied.	!	!LO:TX:t=P:problem:Cross-Measure Beaming still needs to be applied.	!	!LO:TX:t=P:problem:Cross-Measure Beaming still needs to be applied.	!	!	!	!	!
8GGG#XL	.	8GG#XL	.	8A-XL 8e 8fn	.	16fn	.	8r	.
.	.	.	.	.	.	16fnJJ	.	.	.
=66	=66	=66	=66	=66	=66	=66	=66	=66	=66
/8DDnJ	.	/8DnJ	.	8AJ 8e 8f	.	16eLL	.	4%3r	.
.	.	.	.	.	.	16e	.	.	.
8r	.	8r	.	8r	.	16c#X	.	.	.
.	.	.	.	.	.	16c#X	.	.	.
8r	.	8r	.	8r	.	16A	.	.	.
.	.	.	.	.	.	16AJJ	.	.	.
8r	.	8r	.	8r	.	16G#XLL	.	.	.
.	.	.	.	.	.	16G#X	.	.	.
8FFF#XL	.	8FF#XL	.	8G#XL 8A 8c#X	.	16F##X	.	.	.
.	.	.	.	.	.	16F##X	.	.	.
/8EEJ	.	/8EJ	.	8G#J 8A 8c#	.	16G#	.	.	.
.	.	.	.	.	.	16G#JJ	.	.	.
=67	=67	=67	=67	=67	=67	=67	=67	=67	=67
4r	.	4r	.	4r	.	16ALL	.	4%3r	.
.	.	.	.	.	.	16A	.	.	.
.	.	.	.	.	.	16c#X	.	.	.
.	.	.	.	.	.	16c#X	.	.	.
8r	.	8r	.	8r	.	16e	.	.	.
.	.	.	.	.	.	16eJJ	.	.	.
!	!	!LO:TX:a:t=pizz.	!	!	!	!	!	!	!
8AAA#XL	.	8AA#XL	.	8c#XL 8e 8fn	.	16fnLL	.	.	.
.	.	.	.	.	.	16fn	.	.	.
8CC#XJ	.	8C#XJ	.	8c#J 8e 8f	.	16e	.	.	.
.	.	.	.	.	.	16e	.	.	.
8r	.	8r	.	8r	.	16c#	.	.	.
.	.	.	.	.	.	16c#JJ	.	.	.
=68	=68	=68	=68	=68	=68	=68	=68	=68	=68
4r	.	4r	.	4r	.	16ALL	.	4%3r	.
.	.	.	.	.	.	16A	.	.	.
.	.	.	.	.	.	16G#X	.	.	.
.	.	.	.	.	.	16G#X	.	.	.
8GGG#X	.	8GG#X	.	8G#X 8e 8f	.	16F##X	.	.	.
.	.	.	.	.	.	16F##XJJ	.	.	.
/8DDn	.	/8Dn	.	8G# 8e 8f	.	16G#LL	.	.	.
.	.	.	.	.	.	16G#	.	.	.
8r	.	8r	.	8r	.	16A	.	.	.
.	.	.	.	.	.	16A	.	.	.
8r	.	8r	.	8r	.	16c#X	.	.	.
.	.	.	.	.	.	16c#XJJ	.	.	.
=69	=69	=69	=69	=69	=69	=69	=69	=69	=69
8r	.	8r	.	8r	.	16eLL	p	(2.ee	p
.	.	.	.	.	.	16e	.	.	.
8FFF#XL	p	8FF#XL	p	8G#XL 8A 8c#X	p	16f	.	.	.
.	.	.	.	.	.	16f	.	.	.
8EEJ	.	8EJ	.	8G#J 8A 8c#	.	16e	.	.	.
.	.	.	.	.	.	16eJJ	.	.	.
4r	.	4r	.	4r	.	16c#XLL	.	.	.
.	.	.	.	.	.	16c#X	.	.	.
.	.	.	.	.	.	16A	.	.	.
.	.	.	.	.	.	16A	.	.	.
8r	.	8r	.	8r	.	16G#X	.	.	.
.	.	.	.	.	.	16G#XJJ	.	.	.
!!linebreak:original
=70	=70	=70	=70	=70	=70	=70	=70	=70	=70
8AAA#XL	.	8AA#XL	.	8c#XL 8e 8fn	.	16F##XLL	.	[2.cc#X)	.
.	.	.	.	.	.	16F##X	.	.	.
8CC#XJ	.	8C#XJ	.	8c#J 8e 8f	.	16G#X	.	.	.
.	.	.	.	.	.	16G#X	.	.	.
8r	.	8r	.	8r	.	16A	.	.	.
.	.	.	.	.	.	16AJJ	.	.	.
4r	.	4r	.	4r	.	16c#XLL	.	.	.
.	.	.	.	.	.	16c#X	.	.	.
.	.	.	.	.	.	16e	.	.	.
.	.	.	.	.	.	16e	.	.	.
8GGG#XL	.	8GG#XL	.	8G#XL 8e 8f	.	16fn	.	.	.
.	.	.	.	.	.	16fnJJ	.	.	.
=71	=71	=71	=71	=71	=71	=71	=71	=71	=71
/8DDnJ	.	/8DnJ	.	8G#XJ 8e 8f	.	16eLL	.	(4.cc#]	.
.	.	.	.	.	.	16e	.	.	.
8r	.	8r	.	8r	.	16c#X	.	.	.
.	.	.	.	.	.	16c#X	.	.	.
8r	.	8r	.	8r	.	16A	.	.	.
.	.	.	.	.	.	16AJJ	.	.	.
8r	.	8r	.	8r	.	16G#XLL	.	4.ee	.
.	.	.	.	.	.	16G#X	.	.	.
8FFF#XL	.	8FF#XL	.	8G#L 8A 8c#X	.	16F##X	.	.	.
.	.	.	.	.	.	16F##X	.	.	.
/8EEJ	.	/8EJ	.	8G#J 8A 8c#	.	16G#	.	.	.
.	.	.	.	.	.	16G#JJ	.	.	.
=72	=72	=72	=72	=72	=72	=72	=72	=72	=72
4r	.	4r	.	4r	.	16ALL	.	([4.cc#X)	.
.	.	.	.	.	.	16A	.	.	.
.	.	.	.	.	.	16c#X	.	.	.
.	.	.	.	.	.	16c#X	.	.	.
8r	.	8r	.	8r	.	16e	.	.	.
.	.	.	.	.	.	16eJJ	.	.	.
8AAA#XL	.	8AA#XL	.	8c#XL 8e 8fn	.	16fLL	.	4cc#]	.
.	.	.	.	.	.	16f	.	.	.
8CC#XJ	.	8C#XJ	.	8c#J 8e 8f	.	16e	.	.	.
.	.	.	.	.	.	16e	.	.	.
8r	.	8r	.	8r	.	16c#	.	8ee)	.
.	.	.	.	.	.	16c#JJ	.	.	.
=73	=73	=73	=73	=73	=73	=73	=73	=73	=73
4r	.	4r	.	4r	.	16ALL	.	([4.ffn	.
.	.	.	.	.	.	16A	.	.	.
.	.	.	.	.	.	16G#X	.	.	.
.	.	.	.	.	.	16G#X	.	.	.
8GGG#X	.	8GG#X	.	8G#X 8e 8fn	.	16F##X	.	.	.
.	.	.	.	.	.	16F##XJJ	.	.	.
/8DD	.	/8D	.	8G# 8e 8f	.	16G#LL	.	4ff]	.
.	.	.	.	.	.	16G#	.	.	.
8r	.	8r	.	8r	.	16A	.	.	.
.	.	.	.	.	.	16A	.	.	.
8r	.	8r	.	8r	.	16c#X	.	8ggn)	.
.	.	.	.	.	.	16c#XJJ	.	.	.
=74	=74	=74	=74	=74	=74	=74	=74	=74	=74
8r	.	8r	.	8r	.	16eLL	.	(4.aa-X	.
.	.	.	.	.	.	16e	.	.	.
8FFF#XL	.	8FF#XL	.	8G#XL 8A 8c#X	.	16f	.	.	.
.	.	.	.	.	.	16f	.	.	.
8EEJ	.	8EJ	.	8G#J 8A 8c#	.	16e	.	.	.
.	.	.	.	.	.	16eJJ	.	.	.
4r	.	4r	.	4r	.	16c#XLL	.	4.gg	.
.	.	.	.	.	.	16c#X	.	.	.
.	.	.	.	.	.	16A	.	.	.
.	.	.	.	.	.	16A	.	.	.
8r	.	8r	.	8r	.	16G#X	.	.	.
.	.	.	.	.	.	16G#XJJ	.	.	.
!!linebreak:original
=75	=75	=75	=75	=75	=75	=75	=75	=75	=75
8AAA#XL	.	8AA#XL	.	8c#XL 8e 8fn	.	16F##XLL	.	4.gg#X	.
.	.	.	.	.	.	16F##X	.	.	.
8CC#XJ	.	8C#XJ	.	8c#J 8e 8f	.	16G#X	.	.	.
.	.	.	.	.	.	16G#X	.	.	.
8r	.	8r	.	8r	.	16A	.	.	.
.	.	.	.	.	.	16AJJ	.	.	.
4r	.	4r	.	4r	.	16c#XLL	.	4.aan	.
.	.	.	.	.	.	16c#X	.	.	.
.	.	.	.	.	.	16e	.	.	.
.	.	.	.	.	.	16e	.	.	.
8GGG#XL	.	8GG#XL	.	8G#XL 8e 8f	.	16fn	.	.	.
.	.	.	.	.	.	16fnJJ	.	.	.
=76	=76	=76	=76	=76	=76	=76	=76	=76	=76
/8DDJ	.	/8DJ	.	8G#XJ 8e 8f	.	16eLL	.	[2.ccc#X)	.
.	.	.	.	.	.	16e	.	.	.
8r	.	8r	.	8r	.	16c#X	.	.	.
.	.	.	.	.	.	16c#X	.	.	.
8r	.	8r	.	8r	.	16A	.	.	.
.	.	.	.	.	.	16AJJ	.	.	.
8r	.	8r	.	8r	.	16G#XLL	.	.	.
.	.	.	.	.	.	16G#X	.	.	.
8FFF#XL	.	8FF#XL	.	8G#L 8A 8c#X	.	16F##X	.	.	.
.	.	.	.	.	.	16F##X	.	.	.
/8EEJ	.	/8EJ	.	8G#J 8A 8c#	.	16G#	.	.	.
.	.	.	.	.	.	16G#JJ	.	.	.
=77	=77	=77	=77	=77	=77	=77	=77	=77	=77
4r	.	4r	.	4r	.	16ALL	.	4.ccc#]	.
.	.	.	.	.	.	16A	.	.	.
.	.	.	.	.	.	16c#X	.	.	.
.	.	.	.	.	.	16c#X	.	.	.
8r	.	8r	.	8r	.	16e	.	.	.
.	.	.	.	.	.	16eJJ	.	.	.
8AAA#XL	.	8AA#XL	.	8c#XL 8e 8fn	.	16fLL	.	(4.ccc#X	.
.	.	.	.	.	.	16f	.	.	.
8CC#XJ	.	8C#XJ	.	8c#J 8e 8f	.	16e	.	.	.
.	.	.	.	.	.	16e	.	.	.
8r	.	8r	.	8r	.	16c#	.	.	.
.	.	.	.	.	.	16c#JJ	.	.	.
=78	=78	=78	=78	=78	=78	=78	=78	=78	=78
4r	.	4r	.	4r	.	16ALL	.	4.ddd	.
.	.	.	.	.	.	16A	.	.	.
.	.	.	.	.	.	16G#X	.	.	.
.	.	.	.	.	.	16G#X	.	.	.
8GGG#X	.	8GG#X	.	8G#X 8e 8f	.	16F##X	.	.	.
.	.	.	.	.	.	16F##XJJ	.	.	.
/8DD	.	/8D	.	8G# 8e 8f	.	16G#LL	.	4.ccc#X	.
.	.	.	.	.	.	16G#	.	.	.
8r	.	8r	.	8r	.	16A	.	.	.
.	.	.	.	.	.	16A	.	.	.
8r	.	8r	.	8r	.	16c#X	.	.	.
.	.	.	.	.	.	16c#XJJ	.	.	.
=79	=79	=79	=79	=79	=79	=79	=79	=79	=79
8r	.	8r	.	8r	.	16eLL	.	4.bb#X	.
.	.	.	.	.	.	16e	.	.	.
8FFF#XL	.	8FF#XL	.	8G#XL 8A 8c#X	.	16fn	.	.	.
.	.	.	.	.	.	16fn	.	.	.
8EEJ	.	8EJ	.	8G#J 8A 8c#	.	16e	.	.	.
.	.	.	.	.	.	16eJJ	.	.	.
4r	.	4r	.	4r	.	16c#XLL	.	4.ccc)	.
.	.	.	.	.	.	16c#X	.	.	.
.	.	.	.	.	.	16A	.	.	.
.	.	.	.	.	.	16A	.	.	.
8r	.	8r	.	8r	.	16G#X	.	.	.
.	.	.	.	.	.	16G#XJJ	.	.	.
*	*	*	*	*	*	*Xtremolo	*	*	*
=	=	=	=	=	=	=	=	=	=
*-	*-	*-	*-	*-	*-	*-	*-	*-	*-
!!!system-decoration: [(s1,s2,s3,s4,s5)]
!!!RDF**dynam: > = dimin.
!!!EED: Daniel Wright
!!!EEV: 2021/08/23
!!!EED2: Rafael Laurindo
!!!EEV2: 2022/02/18
